X: 23756
T: Little Christmas
R: waltz
M: 3/4
K: Dmajor
|:B2 BA Bd|ce A2 A/B/c|d2 df ed|g2 gf ed|
B2 BA Bd|ce A2 A/B/c|d2 f2 ec|dA FA DA|
B2 BA Bd|ce A2 A/B/c|d2 de fa|g2 gf ga|
bg eg bg|af df af|g2 ed A/B/c|1 d2 dd dc:|2 d2 dd cd||
B2 Bd cd|A2 Ad cA|GF GB AG|F2 FF GF|
EF GA Bd|ce A2 ~A2|B2 BA FA|B2 Bd cd|
B2 Bd cd|A2 Ad cA|GF GB AG|F2 FF GF|
EF GA Bd|ce A2 A/B/c|d2 df ec|dA FA DA||

